X:1
T:Wedding March
T:Wedding March 
T:F. Mendelssohn
C:F. Mendelssohn
%%score { ( 1 4 ) | ( 2 3 ) }
L:1/8
Q:1/4=150
M:4/4
K:C
V:1 treble nm="Piano" snm="Pno."
V:4 treble 
V:2 bass 
V:3 bass 
V:1
!f! (3CCC | C4 z2 (3CCC | C4 z2 (3CCC | [CE]2 (3[CE][CE][CE] [CE]2 (3[CE][CE][CE] | %4
!<(! [CEG]2 (3[CEG][CEG][CEG] [CEG]2 (3[CEG][CEG][CEG]!<)! |!ff! [ce^fc']4 [AB^dfb]3 [ABdf] | %6
 [AB^d^fa]2 [Geg]2 .[FA=d=f]2 .[FAd]2 | T[Ec]4{/Bc} [FGd]2 [FG]>d | [EGe]2 .C.E.G.c.e.g | %9
 [ce^fc']4 [AB^dfb]3 [ABdf] | [AB^d^fa]2 [Geg]2 .[FA=d=f]2 .[FAd]2 | T[Ec]4{/Bc} [Gce]2 [FGBd]>e | %12
 [FGBd]4 [EGc]2!f! z2 | z2 (3CEG c2 z2 | z2 (3EGc [ce]2 z2 | z2 (3EGc [ce]2 (3Gce | %16
!<(! [ceg]2 (3Gce [ceg]2 (3ceg!<)! |!ff! [ce^fc']4 [AB^dfb]3 [ABdf] | %18
 [AB^d^fa]2 [Geg]2 .[FA=d=f]2 .[FAd]2 | T[Ec]4{/Bc} [FGd]2 [FG]>d | [EGe]2 .C.E.G.c.e.g | %21
 [ce^fc']4 [AB^dfb]3 [ABdf] | [AB^d^fa]2 [Geg]2 .[FA=d=f]2 .[FAd]2 | T[Ec]4{/Bc} [Gce]2 [FGBd]>e | %24
 [FGBd]4 [EGc]2 z2 | [CEGc]4 [CEGc]3 [EGc] | [Gce]2 [FBd]2 .[DFB]2 .[B,FG]2 | %27
 [CEG]3 [CEGc] [CEGc]3 [Gce] | [Gce]2 [FBd]2 .[DFB]2 .[B,FG]2 | [CEG]3 [EGce] [EGce]3 [Gceg] | %30
 [Aceg]4 [Adf]2 [Ace]2 | [Acd]2 [A^c]>e [A=cd]2 [CDA]>c | [B,DGB]2 [Gg]2 [Aa]2 [Bb]2 | %33
 [ce^fc']4 [AB^dfb]3 [ABdf] | [AB^d^fa]2 [Geg]2 .[FA=d=f]2 .[FAd]2 | T[Ec]4{/Bc} [FGd]2 [FG]>d | %36
 [EGe]2 .C.E.G.c.e.g | [ce^fc']4 [AB^dfb]3 [ABdf] | [ABea]2 [G^Aeg]2 [F=Adf]2 [FAda]2 | %39
 T[Ec]4{/Bc} [Gce]2 [FGBd]>e | [FGBd]4 [EGc]2 z2 | [CEGc]4 [CEGc]3 [EGc] | %42
 [Gce]2 [FBd]2 .[DFB]2 .[B,FG]2 | [CEG]3 [CEGc] [CEGc]3 [Gce] | [Gce]2 [FBd]2 .[DFB]2 .[B,FG]2 | %45
 [CEG]3 [EGce] [EGce]3 [Gceg] | [Aceg]4 [Adf]2 [Ace]2 | [Acd]2 [A^c]>e [A=cd]2 [CDA]>c | %48
 [B,DGB]2 [Gg]2 [Aa]2 [Bb]2 | [ce^fc']4 [AB^dfb]3 [ABdf] | [AB^d^fa]2 [Geg]2 .[FA=d=f]2 .[FAd]2 | %51
 T[Ec]4{/Bc} [FGd]2 [FG]>d | [EGe]2 .C.E.G.c.e.g | [ce^fc']4 [AB^dfb]3 [ABdf] | %54
 [Bea]2 [^Aeg]2 [=Adf]2 [Ada]2 | T[Ec]4{/Bc} [Gce]2 [FGBd]>e | [FGBd]4 [EGc]2 z3/2 [B,G]/ |: %57
[K:G]!ff! [B,G]7/2 [GB]/ [GB]7/2 [Bd]/ | [Bd]7/2 [eg]/ [eg]7/2 [ce]/ | %59
 [Bd]7/2 [ce]/ [ce]7/2 [Ac]/ | [GB]7/2 [Bd]/ [Bd]7/2 [GB]/ | [FA]7/2 [Bd]/ [Bd]7/2 [GB]/ |1 %62
 [FA]4 z7/2 D/ :|2 [FA]4 z2!f! [EF]2 |: [^DB]7/2 [B^d]/ [Bd]7/2 [df]/ | %65
!f! [^df]7/2 [gb]/ [gb]7/2 [eg]/ | [^df]7/2 [eg]/ [eg]7/2 [ce]/ | [B^d]4 z2!ff! [CD]2 | %68
 [B,G]7/2 [GB]/ [GB]7/2 [Bd]/ | [Bd]7/2 [eg]/ [eg]7/2 [ce]/ | [Bd]7/2 [ce]/ [ce]7/2 [Ac]/ |1 %71
 [GB]4 z2!f! [EF]2 :|2 [GB]4 z2!ff! (3GGG ||[K:C] [ce^fc']4 [AB^dfb]3 [ABdf] | %74
 [AB^d^fa]2 [Geg]2 .[FA=d=f]2 .[FAd]2 | T[Ec]4{/Bc} [FGd]2 [FG]>d | [EGe]2 .C.E.G.c.e.g | %77
 [ce^fc']4 [AB^dfb]3 [ABdf] | [Bea]2 [^Aeg]2 [=Adf]2 [Ada]2 | T[Ec]4{/Bc} [Gce]2 [FGBd]>e | %80
 [FGBd]4 .[EGc]2!p! [CAc]2 | [G,EG]2 [A,FA]2 [^A,G^A]2 [B,^GB]2 | [CAc]2 [Ff]2 [Aa]2 [Ff]2 | %83
 [EBe]2 [Dd]2 [Cc]2 [B,B]2 | [B,DFB]4 [CEc]2 [Cc]2 | [Fcf]4 [CAc]2 [A,FA]2 | %86
 [CAc]4 [A,FA]2 [F,CF]2 | [A,FA]2 [EG]2 [FA]2 [G^A]2 | [A,FA]6 |: C2 | [Cc]2 [A,A]2 [E,E]2 [F,F]2 | %91
 [A,^CEA]3 [G,G] [F,F]2 [E,E]2 | [Gg]3 [Ff] [Ee]2 [Dd]2 | [^C^c]2 [Dd]2 [Ff]2 [Dd]2 | %94
 [CAc]2 [FA]2 [EG]2 [G^A]2 | [A,FA]6 :| [A,A]2 | [A,EGA]3 [^A,^A] [=A,=A]2 [A,A]2 | %98
 [Aa]4 [Ff]2 [A,A]2 | [A,EGA]3 [^A,^A] [=A,=A]2 [A,A]2 | [Aa]4 [Ff]2 [Dd]2 | %101
 [EG^Ae]3 [Dd] [DF=Ad]2 [Dd]2 | [EGe]3 [Dd] [DAd]2 [Dd]2 | [F^Af]2 [Ee]2 [Dd]2 [Ee]2 | %104
 [DGd]4 [^C^c]2 [A,A][B,B] | [CAc]3 [Dd] [Cc]2 [Cc]2 | [cc']4 [Gg]2 [Cc]2 | %107
 [C^Fc]3 [Dd] [Cc]2 [Cc]2 | [cc']4 [Gg]2 (3[Cc][Cc][Cc] | [Cc]4 z2 (3[Cc][Cc][Cc] | %110
!<(! [Cc]4 z2 (3[Cc][Cc][Cc] | [Cc]2 (3[Cc][Cc][Cc] [Cc]2 (3[Cc][Cc][Cc] | %112
 [Cc]2 (3[Cc][Cc][Cc] [Cc]2 (3[Cc][Cc][Cc]!<)! |!ff! [ce^fc']4 [AB^dfb]3 [ABdf] | %114
 [AB^d^fa]2 [Geg]2 .[FA=d=f]2 .[FAd]2 | T[Ec]4{/Bc} [FGd]2 [FG]>d | [EGe]2 .C.E.G.c.e.g | %117
 [ce^fc']4 [AB^dfb]3 [ABdf] | [AB^d^fa]2 [Geg]2 .[FA=d=f]2 .[FAd]2 | T[Ec]4{/Bc} [Gce]2 [FGBd]>e | %120
 [FGBd]4 [EGc]2 z2 | [CEGc]4 [CEGc]3 [EGc] | [Gce]2 [FBd]2 .[DFB]2 .[B,FG]2 | %123
 [CEG]3 [CEGc] [CEGc]3 [Gce] | [Gce]2 [FBd]2 .[DFB]2 .[B,FG]2 | [CEG]3 [EGce] [EGce]3 [Gceg] | %126
 [Aceg]4 [Adf]2 [Ace]2 | [Acd]2 [A^c]>e [A=cd]2 [CDA]>c | [B,DGB]2 [Gg]2 [Aa]2 [Bb]2 | %129
 [ce^fc']4 [AB^dfb]3 [ABdf] | [AB^d^fa]2 [Geg]2 .[FA=d=f]2 .[FAd]2 | T[Ec]4{/Bc} [FGd]2 [FG]>d | %132
 [EGe]2 .C.E.G.c.e.g | [ce^fc']4 [AB^dfb]3 [ABdf] | [ABea]2 [G^Aeg]2 .[F=Adf]2 .[FAda]2 | %135
 T[Ec]4{/Bc} [Gce]2 [FGBd]>e | [FGBd]4 [EGc]2 z2 | z2 (3CEG c2 z2 | z2 (3EGc [ce]2 z2 | %139
 z2 (3EGc [ce]2 (3Gce | [ceg]2 (3Gce [ceg]2 (3ceg |: Tc'8- | c'8- | c'8- | c'8 | %145
 [EGce]4 [FGd]3 [EGc] | [EGce]4 [FGd]3 [EGc] | .[DFGc]2 .[DFGB]2 .[DFGA]2 .[DFGB]2 | [CEGc]4 z4 :| %149
 Tg8- | g8- | g8- | g8 | Tg8- | g8- | g8- | g8 | !>![cegc']8 | !>![cegc']8 | !>![cegc']8- | %160
 [cegc']8 |] %161
V:2
!ped! z2 | z8 | z8 | z8 | z8!ped-up! | [A,,,A,,]4 [B,,,B,,]3 [B,,,B,,] | %6
 [E,,E,]4 .[F,,F,]2 .[F,,F,]2 | [G,,G,]4 [G,,G,]2 [G,,G,]2 | %8
!ped! [C,,C,]2 .C,.E,.G,.C.E.G!ped-up! | [A,,,A,,]4 [B,,,B,,]3 [B,,,B,,] | %10
 [E,,E,]4 .[F,,F,]2 .[F,,F,]2 | [G,,G,]4 [G,,G,]2 [G,,,G,,]2 | [G,,,G,,]4!ped! C,,2 (3CCC | %13
 C4 z2 (3CCC | C4 z2 (3CCC | [CE]2 (3C[CE][CE] [CE]2 (3[CE][CE][CE] | %16
 [CEG]2 (3[CE][CEG][CEG] [CEG]2 (3[CEG][CEG][CEG]!ped-up! | [A,,,A,,]4 [B,,,B,,]3 [B,,,B,,] | %18
 [E,,E,]4 .[F,,F,]2 .[F,,F,]2 | [G,,G,]4 [G,,G,]2 [G,,G,]2 | %20
!ped! [C,,C,]2 .C,.E,.G,.C.E.G!ped-up! | [A,,,A,,]4 [B,,,B,,]3 [B,,,B,,] | %22
 [E,,E,]4 .[F,,F,]2 .[F,,F,]2 | [G,,G,]4 [G,,G,]2 [G,,,G,,]2 | [G,,,G,,]4!ped! C,,2 (3CCC | %25
 [C,,C,]4 [C,,C,]3 [C,,C,]!ped-up! |!ped! [G,,,G,,]6 .[G,,,G,,]2!ped-up! | %27
!ped! [C,,C,]2 [C,,C,]2 [E,,E,]2 [C,,C,]2!ped-up! |!ped! [G,,,G,,]6 .[G,,,G,,]2!ped-up! | %29
!ped! [C,,C,]2 [G,,G,]2 [E,,E,]2 [C,,C,]2!ped-up! | [F,,,F,,]6 [F,A,CE]2 | %31
 [F,A,CD]2 [F,,F,]2 [^F,,^F,]2 [F,,F,]2 | [G,,G,]2 z6 | [A,,,A,,]4 [B,,,B,,]3 [B,,,B,,] | %34
 [E,,E,]4 .[F,,F,]2 .[F,,F,]2 | [G,,G,]4 [G,,G,]2 [G,,G,]2 | %36
!ped! [C,,C,]2 .C,.E,.G,.C.E.G!ped-up! | [A,,A,]2 [^F,,^F,]2 [B,,B,]2 [^D,,^D,]2 | %38
 [E,,E,]2 [^C,,^C,]2 [D,,D,]2 [F,,F,]2 | [G,,G,]4 [G,,G,]2 [G,,,G,,]2 | [G,,,G,,]4!ped! C,,2 z2 | %41
 [C,,C,]4 [C,,C,]3 [C,,C,]!ped-up! |!ped! [G,,,G,,]6 .[G,,,G,,]2!ped-up! | %43
!ped! [C,,C,]2 [C,,C,]2 [E,,E,]2 [C,,C,]2!ped-up! |!ped! [G,,,G,,]6 .[G,,,G,,]2!ped-up! | %45
!ped! [C,,C,]2 [G,,G,]2 [E,,E,]2 [C,,C,]2!ped-up! | [F,,,F,,]6 [F,A,CE]2 | %47
 [F,A,CD]2 [F,,F,]2 [^F,,^F,]2 [F,,F,]2 | [G,,G,]2 z6 | [A,,,A,,]4 [B,,,B,,]3 [B,,,B,,] | %50
 [E,,E,]4 .[F,,F,]2 .[F,,F,]2 | [G,,G,]4 [G,,G,]2 [G,,G,]2 | %52
!ped! [C,,C,]2 .C,.E,.G,.C.E.G!ped-up! | [A,,A,]2 [^F,,^F,]2 [B,,B,]2 [^D,,^D,]2 | %54
 [E,,E,]2 [^C,,^C,]2 [D,,D,]2 [F,,F,]2 | [G,,G,]4 [G,,G,]2 [G,,,G,,]2 | %56
 [G,,,G,,]4 C,,2 z3/2 [B,,G,]/ |:[K:G]!ped! [B,,G,]>G,G,>[G,B,][G,B,]>B,B,>[B,D] | %58
 [B,D]>DD>!ped-up!!ped![EG][EG]>G,G,>[CE]!ped-up! | %59
!ped! [B,D]>G,G,>!ped-up!!ped![CE][CE]>G,G,>[A,C]!ped-up! | %60
!ped! [G,B,]>G,G,>[G,,G,][G,,G,]>D,D,>[B,,B,]!ped-up! | %61
!ped! [D,D]>D,D,>[G,,G,][G,,G,]>D,D,>[B,,B,]!ped-up! |1!ped! D4 z4!ped-up! :|2 %63
!ped! D4 z2!ped-up! [F,,F,]2 |:!ped! [^D,B,]>B,B,>[B,^D][B,D]>DD>[DF]!ped-up! | %65
!ped! [^DF]>B,B,>!ped-up!!ped![GB][GB]>B,B,>[EG]!ped-up! | %66
!ped! [^DF]>B,B,>!ped-up!!ped![EG][EG]>B,B,>[CE]!ped-up! |!ped! [B,^D]>B,B,>D D2!ped-up! [D,,D,]2 | %68
!ped! [B,,G,]>G,G,>[G,B,][G,B,]>B,B,>[B,D]!ped-up! | %69
!ped! [B,D]>DD>!ped-up!!ped![EG][EG]>G,G,>[CE]!ped-up! | %70
!ped! [B,D]>G,G,>!ped-up!!ped![CE][CE]>G,G,>[A,C]!ped-up! |1 %71
!ped! [G,B,]>G,,G,,>G,, G,,2!ped-up! [F,,F,]2 :|2!ped! [G,B,]>G,,G,,>G,, G,,2 z2!ped-up! || %73
[K:C] [A,,,A,,]4 [B,,,B,,]3 [B,,,B,,] | [E,,E,]4 .[F,,F,]2 .[F,,F,]2 | [G,,G,]4 [G,,G,]2 [G,,G,]2 | %76
!ped! [C,,C,]2 .C,.E,.G,.C.E.G!ped-up! | [A,,A,]2 [^F,,^F,]2 [B,,B,]2 [^D,,^D,]2 | %78
 [E,,E,]2 [^C,,^C,]2 [D,,D,]2 [F,,F,]2 | [G,,G,]4 [G,,G,]2 [G,,,G,,]2 | [G,,,G,,]4 .C,,2 C,C, | %81
 C,C,[C,F,][C,F,][C,G,][C,G,][C,^G,][C,G,] | C,C,[C,F,A,][C,F,A,][C,F,A,][C,F,A,][C,F,A,][C,F,A,] | %83
 C,C,[C,F,^G,][C,F,G,][C,F,G,][C,F,G,][C,F,G,][C,F,G,] | %84
 C,[C,F,^G,][C,F,G,][C,F,G,][C,E,=G,][C,E,G,][C,E,G,][C,E,G,] | %85
 C,[C,F,A,][C,F,A,][C,F,A,][C,E,G,][C,E,G,][C,E,G,][C,E,G,] | %86
 F,,[C,F,A,][C,F,A,][C,F,A,][C,F,][C,F,]C,C, | %87
 C,C,[C,G,^A,][C,G,A,][C,F,=A,][C,F,A,][C,E,G,][C,E,G,] | %88
 F,,[C,F,A,][C,F,A,][C,F,A,][C,F,A,][C,F,A,] |: [C,F,A,][C,F,A,] | %90
 A,,[A,,C,][A,,C,][A,,C,][A,,C,][A,,C,][A,,C,][A,,C,] | %91
 ^A,,,[^A,,^C,][A,,C,][A,,C,][A,,C,][A,,C,][A,,C,][A,,C,] | %92
 B,,[B,,F,G,][B,,F,G,][B,,F,G,] [B,,F,G,]4 | [B,,F,G,]4 [B,,F,^G,]4 | %94
 C,C,[C,F,A,][C,F,A,][C,G,^A,][C,G,A,][C,E,G,][C,E,G,] | %95
 F,,[C,F,A,][C,F,A,][C,F,A,][C,F,A,][C,F,A,] :| [C,F,][C,F,] | %97
 ^C,[C,E,G,][C,E,G,][C,E,G,][C,E,G,][C,E,G,][C,E,G,][C,E,G,] | %98
 [D,F,][D,F,][D,F,][D,F,][D,F,][D,F,][D,F,][D,F,] | G,G,G,G,[G,A,^C][G,A,C][G,A,C][G,A,C] | %100
 [F,A,D][F,A,D][F,A,D][F,A,D][F,A,D][F,A,D][F,A,][F,A,] | G,[G,^A,][G,A,][G,A,]=A,A,A,A, | %102
 ^A,A,A,A,F,[F,=A,][F,A,][F,A,] | G,[G,^A,][G,A,][G,A,][G,A,][G,A,][G,A,][G,A,] | %104
 [E,G,A,][E,G,A,][E,G,A,][E,G,A,][E,G,A,][E,G,A,][E,G,][E,G,] | %105
 [^F,,C,D,][F,,C,D,][F,,C,D,][F,,C,D,][F,,C,D,][F,,C,D,][F,,C,D,][F,,C,D,] | %106
 [G,,C,D,G,][G,,C,D,G,][G,,C,D,G,][G,,C,D,G,][G,,C,D,G,][G,,C,D,G,][G,,C,D,G,][G,,C,D,G,] | %107
 [A,,C,D,^F,][A,,C,D,F,][A,,C,D,F,][A,,C,D,F,][A,,C,D,F,][A,,C,D,F,][A,,C,D,F,][A,,C,D,F,] | %108
 [G,,C,D,G,][G,,C,D,G,][G,,C,D,G,][G,,C,D,G,][G,,C,D,G,][G,,C,D,G,][G,,C,D,G,][G,,C,D,G,] | %109
 [^F,A,E][F,A,][F,A,][F,A,D][F,A,E][F,A,][F,A,D][F,A,] | %110
 [^F,A,E][F,A,][F,A,D][F,A,][F,A,E][F,A,][F,A,D][F,A,] | [A,E]A,[A,D]A,[A,E]A,[A,D]A, | %112
 [A,E]A,[A,D]A,[A,E]A,[A,D]A, | [A,,,A,,]4 [B,,,B,,]3 [B,,,B,,] | [E,,E,]4 .[F,,F,]2 .[F,,F,]2 | %115
 [G,,G,]4 [G,,G,]2 [G,,G,]2 |!ped! [C,,C,]2 .C,.E,.G,.C.E.G!ped-up! | %117
 [A,,,A,,]4 [B,,,B,,]3 [B,,,B,,] | [E,,E,]4 .[F,,F,]2 .[F,,F,]2 | [G,,G,]4 [G,,G,]2 [G,,,G,,]2 | %120
 [G,,,G,,]4!ped! C,,2 z2 | [C,,C,]2 [C,,C,]>[C,,C,] [C,,C,]2 [C,,C,]2!ped-up! | %122
!ped! [G,,,G,,]6 [G,,,G,,]2!ped-up! |!ped! [C,,C,]2 [C,,C,]2 [E,,E,]2 [C,,C,]2!ped-up! | %124
!ped! [G,,,G,,]6 [G,,,G,,]2!ped-up! |!ped! [C,,C,]2 [G,,G,]2 [E,,E,]2 [C,,C,]2!ped-up! | %126
 [F,,,F,,]6 [F,A,CE]2 | [F,A,CD]2 [F,,F,]2 [^F,,^F,]2 [F,,F,]2 | %128
 [G,,G,]2 [G,,G,][F,,F,][E,,E,][D,,D,][C,,C,][B,,,B,,] | %129
 .[A,,,A,,].C,.E,.A,,.[B,,,B,,].^D,.^F,.B,, | .[E,,E,].B,,.E,.E,,.F,,.A,,.D,.F,, | %131
 .[G,,,G,,].E,,.C,,.E,,.[G,,,G,,].B,,,.D,,.G,, |!ped! .[C,,C,].E,.G,.E,.C,.G,,.E,,.C,,!ped-up! | %133
 .[A,,,A,,].[C,,C,].[^F,,^F,].[A,,A,].[B,,B,].[F,,F,].[^D,,^D,].[B,,,B,,] | %134
 .[E,,E,].[B,,,B,,].[^C,,^C,].[E,,E,].[D,,D,].[A,,,A,,].[F,,,F,,].[D,,,D,,] | %135
 [G,,,G,,][G,,C,][C,E,][E,G,] [G,CE]2 [G,,,G,,]2 | [G,,,G,,]4!ped! C,,2 (3CCC | C4 z2 (3CCC | %138
 C4 z2 (3CCC | [CE]2 (3C[CE][CE] [CE]2 (3[CE][CE][CE] | %140
 [CEG]2 (3[CE][CEG][CEG] [CEG]2 (3[CEG][CEG][CEG]!ped-up! |: [^A,CEG]4 [=A,CF]3 [^G,CE] | %142
 [^G,CE]4 [A,CF]4 | [A,,C,F,]4 [G,,C,E,]3 [^F,,C,^D,] | [^F,,C,^D,]4 [G,,C,E,]4 | TG,8- | G,8- | %147
 G,8- | G,8 :|[K:treble] [Gce]4 [FGd]3 [EGc] | [Gce]4 [FGd]3 [EGc] | %151
 [DFGc]2[K:bass] [G,,D,F,G,]2 [G,,D,F,G,]2 [G,,D,F,G,]2 |!ped! [C,E,G,C]4 z7/2[K:treble] [ce]/ | %153
 [ce]4 [ce]4 | [ce]4 z7/2 [CEGc]/ | [CEGc]4 [CEGc]4 | [CEGc]4 z7/2[K:bass] !>![C,,C,]/ | %157
 !>![C,,C,]8 | !>![C,,C,]8 | !>![C,,C,]8- | [C,,C,]8!ped-up! |] %161
V:3
 x2 | x8 | x8 | x8 | x8 | x8 | x8 | x8 | x8 | x8 | x8 | x8 | x8 | x8 | x8 | x8 | x8 | x8 | x8 | %19
 x8 | x8 | x8 | x8 | x8 | x8 | x8 | x8 | x8 | x8 | x8 | x8 | x8 | x8 | x8 | x8 | x8 | x8 | x8 | %38
 x8 | x8 | x8 | x8 | x8 | x8 | x8 | x8 | x8 | x8 | x8 | x8 | x8 | x8 | x8 | x8 | x8 | x8 | x8 |: %57
[K:G] x8 | x8 | x8 | x8 | x8 |1 D,>D,D,>D,D,>D, D,2 :|2 D,>D,D,>D,D,>D, x2 |: x8 | x8 | x8 | x8 | %68
 x8 | x8 | x8 |1 x8 :|2 x8 ||[K:C] x8 | x8 | x8 | x8 | x8 | x8 | x8 | x8 | x8 | x8 | x8 | x8 | x8 | %86
 x8 | x8 | x6 |: x2 | x8 | x8 | x8 | x8 | x8 | x6 :| x2 | x8 | x8 | x8 | x8 | x8 | x8 | x8 | x8 | %105
 x8 | x8 | x8 | x8 | x8 | x8 | x8 | x8 | x8 | x8 | x8 | x8 | x8 | x8 | x8 | x8 | x8 | x8 | x8 | %124
 x8 | x8 | x8 | x8 | x8 | x8 | x8 | x8 | x8 | x8 | x8 | x8 | x8 | x8 | x8 | x8 | x8 |: x8 | x8 | %143
 x8 | x8 | x8 | x8 | x8 | C,4 z4 :|[K:treble] x8 | x8 | x2[K:bass] x6 | x15/2[K:treble] x/ | x8 | %154
 x8 | x8 | x15/2[K:bass] x/ | x8 | x8 | x8 | x8 |] %161
V:4
 x2 | x8 | x8 | x8 | x8 | x8 | x8 | x8 | x8 | x8 | x8 | x8 | x8 | x8 | x8 | x8 | x8 | x8 | x8 | %19
 x8 | x8 | x8 | x8 | x8 | x8 | x8 | x8 | x8 | x8 | x8 | x8 | x8 | x8 | x8 | x8 | x8 | x8 | x8 | %38
 x8 | x8 | x8 | x8 | x8 | x8 | x8 | x8 | x8 | x8 | x8 | x8 | x8 | x8 | x8 | x8 | x8 | x8 | x8 |: %57
[K:G] x8 | x8 | x8 | x8 | x8 |1 x8 :|2 x8 |: x8 | x8 | x8 | x8 | x8 | x8 | x8 |1 x8 :|2 x8 || %73
[K:C] x8 | x8 | x8 | x8 | x8 | x8 | x8 | x8 | x8 | x8 | x8 | x8 | x8 | x8 | x8 | x6 |: x2 | x8 | %91
 x8 | x8 | x8 | x8 | x6 :| x2 | x8 | x8 | x8 | x8 | x8 | x8 | x8 | x8 | x8 | x8 | x8 | x8 | x8 | %110
 x8 | x8 | x8 | x8 | x8 | x8 | x8 | x8 | x8 | x8 | x8 | x8 | x8 | x8 | x8 | x8 | x8 | x8 | x8 | %129
 x8 | x8 | x8 | x8 | x8 | x8 | x8 | x8 | x8 | x8 | x8 | x8 |: x8 | x8 | x8 | x8 | x8 | x8 | x8 | %148
 x8 :| x8 | x8 | z2 B2 A2 B2 | c4 z4 | [c'e']4 [c'e']4 | [c'e']4 x4 | x8 | x15/2!fff! !>![cegc']/ | %157
 x8 | x8 | x8 | x8 |] %161

